riotgames.svg

<svg viewBox="0 0 24 24" xmlns="http://www.w3.org/2000/svg"><path d="M12.5366 21.7813L11.4489 18.968L21.9915 19.5045L21.513 24L12.5366 21.7813ZM15.0598 0L0.297281 6.97523L2.57402 17.4743L5.59033 17.4743L5.06828 9.96254L5.53233 9.81752L7.34501 17.4743L10.4773 17.4743L10.3613 8.32387L10.8254 8.17885L12.406 17.4743L15.7124 17.4743L16.4955 6.40967L16.9595 6.26465L17.7861 17.4598L22.1656 17.4598L23.7027 2.08822L15.0598 0Z" fill="#d22a36"/></svg>

<svg viewBox="0 0 24 24" xmlns="http://www.w3.org/2000/svg"><path d="m12.537 21.781-1.088-2.813 10.542.537L21.513 24l-8.976-2.219ZM15.06 0 .297 6.975l2.277 10.5H5.59l-.522-7.512.464-.145 1.813 7.656h3.132l-.116-9.15.464-.145 1.581 9.295h3.306l.784-11.064.463-.145.827 11.195h4.38l1.537-15.372L15.06 0Z" fill="#d22a36"/></svg>
